icons/svg/ethernet-cable.svg

<svg xmlns="http://www.w3.org/2000/svg" version="1.1" baseProfile="full" width="24" height="24" viewBox="0 0 24.00 24.00" xml:space="preserve"><path fill="#000" fill-opacity="1" stroke-width="1.333" stroke-linejoin="miter" d="M11 3v4h2V3h-2zM8 4v7h8V4h-2v4h-4V4H8zm2 8v10h4V12h-4z"/></svg>

﻿<?xml version="1.0" encoding="utf-8"?>
<!DOCTYPE svg PUBLIC "-//W3C//DTD SVG 1.1//EN" "http://www.w3.org/Graphics/SVG/1.1/DTD/svg11.dtd">
<svg xmlns="http://www.w3.org/2000/svg" xmlns:xlink="http://www.w3.org/1999/xlink" version="1.1" baseProfile="full" width="24" height="24" viewBox="0 0 24.00 24.00" enable-background="new 0 0 24.00 24.00" xml:space="preserve">
	<path fill="#000000" fill-opacity="1" stroke-width="1.33333" stroke-linejoin="miter" d="M 11,3L 11,7L 13,7L 13,3L 11,3 Z M 8,4L 8,11L 16,11L 16,4L 14,4L 14,8L 10,8L 10,4L 8,4 Z M 10,12L 10,22L 14,22L 14,12L 10,12 Z "/>
</svg>
